;Generated with Cura_SteamEngine 13.12
;Sliced at: Thu 06-02-2014 19:02:12
;Basic settings: Layer height: 0.1 Walls: 0.7 Fill: 0
;Print time: #P_TIME#
;Filament used: #F_AMNT#m #F_WGHT#g
;Filament cost: #F_COST#
;M190 S70 ;Uncomment to add your own bed temperature line
;M109 S0 ;Uncomment to add your own temperature line
G21        ;metric values
G90        ;absolute positioning
;M107       ;start with the fan on

G28 X0 Y0  ;move X/Y to min endstops
G28 Z0     ;move Z to min endstops
G29

G1 Z10.0 F2400 ;move the platform down 15mm
M106

;G92 E0                  ;zero the extruded length
;G1 F200 E3              ;extrude 3mm of feed stock
G92 E0                  ;zero the extruded length again
G1 F2400
;Put printing message on LCD screen
M117 Printing...

;Layer count: 250
;LAYER:0
M107
G0 F1980 X44.17 Y64.17 Z0.20
;TYPE:SKIRT
G1 F2400 E0.00000
G1 F1440 X75.83 Y64.17 E0.92110
G1 X75.83 Y95.83 E1.84220
G1 X44.17 Y95.83 E2.76329
G1 X44.17 Y64.17 E3.68439
G0 F1980 X44.52 Y64.53
G1 F1440 X75.47 Y64.53 E4.58512
G1 X75.47 Y95.47 E5.48584
G1 X44.52 Y95.47 E6.38657
G1 X44.52 Y64.53 E7.28730
G0 F1980 X44.88 Y64.88
G1 F1440 X75.13 Y64.88 E8.16765
G1 X75.13 Y95.13 E9.04800
G1 X44.88 Y95.13 E9.92836
G1 X44.88 Y64.88 E10.80871
G0 F1980 X45.23 Y65.22
G1 F1440 X74.78 Y65.22 E11.66869
G1 X74.78 Y94.78 E12.52868
G1 X45.23 Y94.78 E13.38866
G1 X45.23 Y65.22 E14.24864
G0 F1980 X45.58 Y65.58
G1 F1440 X74.42 Y65.58 E15.08825
G1 X74.42 Y94.42 E15.92786
G1 X45.58 Y94.42 E16.76747
G1 X45.58 Y65.58 E17.60708
G0 F1980 X45.92 Y65.92
G1 F1440 X74.08 Y65.92 E18.42632
G1 X74.08 Y94.08 E19.24556
G1 X45.92 Y94.08 E20.06480
G1 X45.92 Y65.92 E20.88404
G0 F1980 X46.27 Y66.28
G1 F1440 X73.72 Y66.28 E21.68291
G1 X73.72 Y93.72 E22.48177
G1 X46.27 Y93.72 E23.28064
G1 X46.27 Y66.28 E24.07951
G0 F1980 X46.63 Y66.63
G1 F1440 X73.38 Y66.63 E24.85800
G1 X73.38 Y93.38 E25.63650
G1 X46.63 Y93.38 E26.41499
G1 X46.63 Y66.63 E27.19349
G0 F1980 X46.98 Y66.97
G1 F1440 X73.03 Y66.97 E27.95161
G1 X73.03 Y93.03 E28.70973
G1 X46.98 Y93.03 E29.46786
G1 X46.98 Y66.97 E30.22598
G0 F1980 X47.33 Y67.33
G1 F1440 X72.67 Y67.33 E30.96373
G1 X72.67 Y92.67 E31.70148
G1 X47.33 Y92.67 E32.43923
G1 X47.33 Y67.33 E33.17698
G0 F1980 X48.02 Y68.03
;TYPE:WALL-INNER
G1 F1440 X71.97 Y68.03 E33.87399
G1 X71.97 Y91.97 E34.57100
G1 X48.02 Y91.97 E35.26801
G1 X48.02 Y68.03 E35.96502
G0 F1980 X47.67 Y67.67
;TYPE:WALL-OUTER
G1 F1440 X72.33 Y67.67 E36.68240
G1 X72.33 Y92.33 E37.39977
G1 X47.67 Y92.33 E38.11715
G1 X47.67 Y67.67 E38.83453
G0 F1980 X48.15 Y68.19
;TYPE:FILL
G1 F1440 X71.80 Y91.85 E39.80819
G0 F1980 X71.85 Y91.40
G1 F1440 X48.59 Y68.15 E40.76535
G0 F1980 X49.09 Y68.15
G1 F1440 X71.85 Y90.91 E41.70213
G0 F1980 X71.85 Y90.41
G1 F1440 X49.59 Y68.15 E42.61854
G0 F1980 X50.08 Y68.15
G1 F1440 X71.85 Y89.92 E43.51457
G0 F1980 X71.85 Y89.42
G1 F1440 X50.58 Y68.15 E44.39024
G0 F1980 X51.07 Y68.15
G1 F1440 X71.85 Y88.93 E45.24553
G0 F1980 X71.85 Y88.43
G1 F1440 X51.56 Y68.15 E46.08044
G0 F1980 X52.06 Y68.15
G1 F1440 X71.85 Y87.94 E46.89499
G0 F1980 X71.85 Y87.44
G1 F1440 X52.56 Y68.15 E47.68916
G0 F1980 X53.05 Y68.15
G1 F1440 X71.85 Y86.95 E48.46296
G0 F1980 X71.85 Y86.45
G1 F1440 X53.55 Y68.15 E49.21638
G0 F1980 X54.04 Y68.15
G1 F1440 X71.85 Y85.96 E49.94944
G0 F1980 X71.85 Y85.46
G1 F1440 X54.53 Y68.15 E50.66212
G0 F1980 X55.03 Y68.15
G1 F1440 X71.85 Y84.97 E51.35442
G0 F1980 X71.85 Y84.47
G1 F1440 X55.52 Y68.15 E52.02636
G0 F1980 X56.02 Y68.15
G1 F1440 X71.85 Y83.98 E52.67792
G0 F1980 X71.85 Y83.48
G1 F1440 X56.52 Y68.15 E53.30911
G0 F1980 X57.01 Y68.15
G1 F1440 X71.85 Y82.99 E53.91993
G0 F1980 X71.85 Y82.49
G1 F1440 X57.51 Y68.15 E54.51037
G0 F1980 X58.00 Y68.15
G1 F1440 X71.85 Y82.00 E55.08044
G0 F1980 X71.85 Y81.50
G1 F1440 X58.49 Y68.15 E55.63014
G0 F1980 X58.99 Y68.15
G1 F1440 X71.85 Y81.01 E56.15946
G0 F1980 X71.85 Y80.51
G1 F1440 X59.48 Y68.15 E56.66843
G0 F1980 X59.98 Y68.15
G1 F1440 X71.85 Y80.02 E57.15703
G0 F1980 X71.85 Y79.52
G1 F1440 X60.48 Y68.15 E57.62526
G0 F1980 X60.97 Y68.15
G1 F1440 X71.85 Y79.03 E58.07311
G0 F1980 X71.85 Y78.53
G1 F1440 X61.47 Y68.15 E58.50059
G0 F1980 X61.96 Y68.15
G1 F1440 X71.85 Y78.04 E58.90770
G0 F1980 X71.85 Y77.54
G1 F1440 X62.45 Y68.15 E59.29443
G0 F1980 X62.95 Y68.15
G1 F1440 X71.85 Y77.05 E59.66079
G0 F1980 X71.85 Y76.55
G1 F1440 X63.45 Y68.15 E60.00678
G0 F1980 X63.94 Y68.15
G1 F1440 X71.85 Y76.06 E60.33240
G0 F1980 X71.85 Y75.56
G1 F1440 X64.44 Y68.15 E60.63764
G0 F1980 X64.93 Y68.15
G1 F1440 X71.85 Y75.07 E60.92251
G0 F1980 X71.85 Y74.57
G1 F1440 X65.42 Y68.15 E61.18701
G0 F1980 X65.92 Y68.15
G1 F1440 X71.85 Y74.08 E61.43114
G0 F1980 X71.85 Y73.58
G1 F1440 X66.42 Y68.15 E61.65489
G0 F1980 X66.91 Y68.15
G1 F1440 X71.85 Y73.09 E61.85829
G0 F1980 X71.85 Y72.59
G1 F1440 X67.40 Y68.15 E62.04131
G0 F1980 X67.90 Y68.15
G1 F1440 X71.85 Y72.10 E62.20397
G0 F1980 X71.85 Y71.60
G1 F1440 X68.39 Y68.15 E62.34625
G0 F1980 X68.89 Y68.15
G1 F1440 X71.85 Y71.11 E62.46816
G0 F1980 X71.85 Y70.61
G1 F1440 X69.38 Y68.15 E62.56969
G0 F1980 X69.88 Y68.15
G1 F1440 X71.85 Y70.12 E62.65085
G0 F1980 X71.85 Y69.62
G1 F1440 X70.37 Y68.15 E62.71164
G0 F1980 X70.87 Y68.15
G1 F1440 X71.85 Y69.13 E62.75206
G0 F1980 X71.85 Y68.63
G1 F1440 X71.36 Y68.15 E62.77210
G0 F1980 X48.15 Y68.69
G1 F1440 X71.31 Y91.85 E63.72539
G0 F1980 X70.81 Y91.85
G1 F1440 X48.15 Y69.18 E64.65830
G0 F1980 X48.15 Y69.68
G1 F1440 X70.32 Y91.85 E65.57084
G0 F1980 X69.82 Y91.85
G1 F1440 X48.15 Y70.17 E66.46303
G0 F1980 X48.15 Y70.67
G1 F1440 X69.33 Y91.85 E67.33484
G0 F1980 X68.83 Y91.85
G1 F1440 X48.15 Y71.16 E68.18629
G0 F1980 X48.15 Y71.66
G1 F1440 X68.34 Y91.85 E69.01736
G0 F1980 X67.84 Y91.85
G1 F1440 X48.15 Y72.15 E69.82805
G0 F1980 X48.15 Y72.65
G1 F1440 X67.35 Y91.85 E70.61837
G0 F1980 X66.85 Y91.85
G1 F1440 X48.15 Y73.14 E71.38833
G0 F1980 X48.15 Y73.64
G1 F1440 X66.36 Y91.85 E72.13790
G0 F1980 X65.86 Y91.85
G1 F1440 X48.15 Y74.13 E72.86711
G0 F1980 X48.15 Y74.63
G1 F1440 X65.37 Y91.85 E73.57594
G0 F1980 X64.87 Y91.85
G1 F1440 X48.15 Y75.12 E74.26440
G0 F1980 X48.15 Y75.62
G1 F1440 X64.38 Y91.85 E74.93248
G0 F1980 X63.88 Y91.85
G1 F1440 X48.15 Y76.11 E75.58020
G0 F1980 X48.15 Y76.61
G1 F1440 X63.39 Y91.85 E76.20756
G0 F1980 X62.90 Y91.85
G1 F1440 X48.15 Y77.10 E76.81455
G0 F1980 X48.15 Y77.60
G1 F1440 X62.40 Y91.85 E77.40116
G0 F1980 X61.91 Y91.85
G1 F1440 X48.15 Y78.09 E77.96740
G0 F1980 X48.15 Y78.59
G1 F1440 X61.41 Y91.85 E78.51327
G0 F1980 X60.91 Y91.85
G1 F1440 X48.15 Y79.08 E79.03877
G0 F1980 X48.15 Y79.58
G1 F1440 X60.42 Y91.85 E79.54389
G0 F1980 X59.92 Y91.85
G1 F1440 X48.15 Y80.07 E80.02865
G0 F1980 X48.15 Y80.57
G1 F1440 X59.43 Y91.85 E80.49302
G0 F1980 X58.94 Y91.85
G1 F1440 X48.15 Y81.06 E80.93703
G0 F1980 X48.15 Y81.56
G1 F1440 X58.44 Y91.85 E81.36066
G0 F1980 X57.95 Y91.85
G1 F1440 X48.15 Y82.05 E81.76392
G0 F1980 X48.15 Y82.55
G1 F1440 X57.45 Y91.85 E82.14681
G0 F1980 X56.95 Y91.85
G1 F1440 X48.15 Y83.04 E82.50932
G0 F1980 X48.15 Y83.54
G1 F1440 X56.46 Y91.85 E82.85146
G0 F1980 X55.97 Y91.85
G1 F1440 X48.15 Y84.03 E83.17323
G0 F1980 X48.15 Y84.53
G1 F1440 X55.47 Y91.85 E83.47462
G0 F1980 X54.98 Y91.85
G1 F1440 X48.15 Y85.02 E83.75565
G0 F1980 X48.15 Y85.52
G1 F1440 X54.48 Y91.85 E84.01630
G0 F1980 X53.98 Y91.85
G1 F1440 X48.15 Y86.01 E84.25657
G0 F1980 X48.15 Y86.51
G1 F1440 X53.49 Y91.85 E84.47648
G0 F1980 X52.99 Y91.85
G1 F1440 X48.15 Y87.00 E84.67601
G0 F1980 X48.15 Y87.50
G1 F1440 X52.50 Y91.85 E84.85516
G0 F1980 X52.01 Y91.85
G1 F1440 X48.15 Y87.99 E85.01395
G0 F1980 X48.15 Y88.49
G1 F1440 X51.51 Y91.85 E85.15236
G0 F1980 X51.02 Y91.85
G1 F1440 X48.15 Y88.98 E85.27040
G0 F1980 X48.15 Y89.48
G1 F1440 X50.52 Y91.85 E85.36809
G0 F1980 X50.02 Y91.85
G1 F1440 X48.15 Y89.97 E85.44540
G0 F1980 X48.15 Y90.47
G1 F1440 X49.53 Y91.85 E85.50234
G0 F1980 X49.03 Y91.85
G1 F1440 X48.15 Y90.96 E85.53891
G0 F1980 X48.15 Y91.46
G1 F1440 X48.54 Y91.85 E85.55511
;LAYER:1
M106 S84
G0 F2400 X48.02 Y91.97 Z0.30
;TYPE:WALL-INNER
G1 F1560 X48.02 Y68.03 E85.90361
G1 X71.97 Y68.03 E86.25211
G1 X71.97 Y91.97 E86.60062
G1 X48.02 Y91.97 E86.94912
G0 F2400 X47.67 Y92.33
;TYPE:WALL-OUTER
G1 F1560 X47.67 Y67.67 E87.30781
G1 X72.33 Y67.67 E87.66650
G1 X72.33 Y92.33 E88.02519
G1 X47.67 Y92.33 E88.38388
G0 F2400 X48.15 Y91.68
;TYPE:FILL
G1 F1560 X71.68 Y68.15 E88.86820
G0 F2400 X71.85 Y68.47
G1 F1560 X48.47 Y91.85 E89.34928
G0 F2400 X48.97 Y91.85
G1 F1560 X71.85 Y68.97 E89.82017
G0 F2400 X71.85 Y69.46
G1 F1560 X49.46 Y91.85 E90.28087
G0 F2400 X49.96 Y91.85
G1 F1560 X71.85 Y69.96 E90.73139
G0 F2400 X71.85 Y70.45
G1 F1560 X50.45 Y91.85 E91.17173
G0 F2400 X50.95 Y91.85
G1 F1560 X71.85 Y70.95 E91.60189
G0 F2400 X71.85 Y71.44
G1 F1560 X51.44 Y91.85 E92.02186
G0 F2400 X51.94 Y91.85
G1 F1560 X71.85 Y71.94 E92.43164
G0 F2400 X71.85 Y72.43
G1 F1560 X52.43 Y91.85 E92.83124
G0 F2400 X52.93 Y91.85
G1 F1560 X71.85 Y72.93 E93.22065
G0 F2400 X71.85 Y73.42
G1 F1560 X53.42 Y91.85 E93.59987
G0 F2400 X53.92 Y91.85
G1 F1560 X71.85 Y73.92 E93.96891
G0 F2400 X71.85 Y74.41
G1 F1560 X54.41 Y91.85 E94.32776
G0 F2400 X54.91 Y91.85
G1 F1560 X71.85 Y74.91 E94.67642
G0 F2400 X71.85 Y75.40
G1 F1560 X55.40 Y91.85 E95.01490
G0 F2400 X55.90 Y91.85
G1 F1560 X71.85 Y75.90 E95.34319
G0 F2400 X71.85 Y76.39
G1 F1560 X56.39 Y91.85 E95.66130
G0 F2400 X56.89 Y91.85
G1 F1560 X71.85 Y76.89 E95.96922
G0 F2400 X71.85 Y77.38
G1 F1560 X57.38 Y91.85 E96.26695
G0 F2400 X57.88 Y91.85
G1 F1560 X71.85 Y77.88 E96.55449
G0 F2400 X71.85 Y78.37
G1 F1560 X58.37 Y91.85 E96.83185
G0 F2400 X58.87 Y91.85
G1 F1560 X71.85 Y78.87 E97.09902
G0 F2400 X71.85 Y79.36
G1 F1560 X59.36 Y91.85 E97.35601
G0 F2400 X59.86 Y91.85
G1 F1560 X71.85 Y79.86 E97.60281
G0 F2400 X71.85 Y80.35
G1 F1560 X60.35 Y91.85 E97.83943
G0 F2400 X60.85 Y91.85
G1 F1560 X71.85 Y80.85 E98.06587
G0 F2400 X71.85 Y81.34
G1 F1560 X61.34 Y91.85 E98.28212
G0 F2400 X61.84 Y91.85
G1 F1560 X71.85 Y81.84 E98.48819
G0 F2400 X71.85 Y82.33
G1 F1560 X62.33 Y91.85 E98.68407
G0 F2400 X62.83 Y91.85
G1 F1560 X71.85 Y82.83 E98.86976
G0 F2400 X71.85 Y83.32
G1 F1560 X63.32 Y91.85 E99.04526
G0 F2400 X63.82 Y91.85
G1 F1560 X71.85 Y83.82 E99.21058
G0 F2400 X71.85 Y84.31
G1 F1560 X64.31 Y91.85 E99.36571
G0 F2400 X64.81 Y91.85
G1 F1560 X71.85 Y84.81 E99.51066
G0 F2400 X71.85 Y85.30
G1 F1560 X65.30 Y91.85 E99.64542
G0 F2400 X65.80 Y91.85
G1 F1560 X71.85 Y85.80 E99.76999
G0 F2400 X71.85 Y86.29
G1 F1560 X66.29 Y91.85 E99.88438
G0 F2400 X66.79 Y91.85
G1 F1560 X71.85 Y86.79 E99.98858
G0 F2400 X71.85 Y87.28
G1 F1560 X67.28 Y91.85 E100.08259
G0 F2400 X67.78 Y91.85
G1 F1560 X71.85 Y87.78 E100.16642
G0 F2400 X71.85 Y88.27
G1 F1560 X68.27 Y91.85 E100.24006
G0 F2400 X68.77 Y91.85
G1 F1560 X71.85 Y88.77 E100.30351
G0 F2400 X71.85 Y89.26
G1 F1560 X69.26 Y91.85 E100.35678
G0 F2400 X69.76 Y91.85
G1 F1560 X71.85 Y89.76 E100.39986
G0 F2400 X71.85 Y90.25
G1 F1560 X70.25 Y91.85 E100.43277
G0 F2400 X70.75 Y91.85
G1 F1560 X71.85 Y90.75 E100.45549
G0 F2400 X71.85 Y91.24
G1 F1560 X71.24 Y91.85 E100.46802
G0 F2400 X71.74 Y91.85
G1 F1560 X71.85 Y91.74 E100.47036
G0 F2400 X71.19 Y68.15
G1 F1560 X48.15 Y91.19 E100.94450
G0 F2400 X48.15 Y90.69
G1 F1560 X70.69 Y68.15 E101.40845
G0 F2400 X70.20 Y68.15
G1 F1560 X48.15 Y90.20 E101.86222
G0 F2400 X48.15 Y89.70
G1 F1560 X69.70 Y68.15 E102.30581
G0 F2400 X69.21 Y68.15
G1 F1560 X48.15 Y89.21 E102.73920
G0 F2400 X48.15 Y88.71
G1 F1560 X68.71 Y68.15 E103.16241
G0 F2400 X68.22 Y68.15
G1 F1560 X48.15 Y88.22 E103.57544
G0 F2400 X48.15 Y87.72
G1 F1560 X67.72 Y68.15 E103.97828
G0 F2400 X67.23 Y68.15
G1 F1560 X48.15 Y87.23 E104.37093
G0 F2400 X48.15 Y86.73
G1 F1560 X66.73 Y68.15 E104.75340
G0 F2400 X66.24 Y68.15
G1 F1560 X48.15 Y86.24 E105.12569
G0 F2400 X48.15 Y85.74
G1 F1560 X65.74 Y68.15 E105.48779
G0 F2400 X65.25 Y68.15
G1 F1560 X48.15 Y85.25 E105.83971
G0 F2400 X48.15 Y84.75
G1 F1560 X64.75 Y68.15 E106.18144
G0 F2400 X64.26 Y68.15
G1 F1560 X48.15 Y84.26 E106.51298
G0 F2400 X48.15 Y83.76
G1 F1560 X63.76 Y68.15 E106.83434
G0 F2400 X63.27 Y68.15
G1 F1560 X48.15 Y83.27 E107.14551
G0 F2400 X48.15 Y82.77
G1 F1560 X62.77 Y68.15 E107.44649
G0 F2400 X62.28 Y68.15
G1 F1560 X48.15 Y82.28 E107.73729
G0 F2400 X48.15 Y81.78
G1 F1560 X61.78 Y68.15 E108.01790
G0 F2400 X61.29 Y68.15
G1 F1560 X48.15 Y81.29 E108.28832
G0 F2400 X48.15 Y80.79
G1 F1560 X60.79 Y68.15 E108.54856
G0 F2400 X60.30 Y68.15
G1 F1560 X48.15 Y80.30 E108.79861
G0 F2400 X48.15 Y79.80
G1 F1560 X59.80 Y68.15 E109.03847
G0 F2400 X59.31 Y68.15
G1 F1560 X48.15 Y79.31 E109.26815
G0 F2400 X48.15 Y78.81
G1 F1560 X58.81 Y68.15 E109.48764
G0 F2400 X58.32 Y68.15
G1 F1560 X48.15 Y78.32 E109.69695
G0 F2400 X48.15 Y77.82
G1 F1560 X57.82 Y68.15 E109.89607
G0 F2400 X57.33 Y68.15
G1 F1560 X48.15 Y77.33 E110.08500
G0 F2400 X48.15 Y76.83
G1 F1560 X56.83 Y68.15 E110.26375
G0 F2400 X56.34 Y68.15
G1 F1560 X48.15 Y76.34 E110.43231
G0 F2400 X48.15 Y75.84
G1 F1560 X55.84 Y68.15 E110.59068
G0 F2400 X55.35 Y68.15
G1 F1560 X48.15 Y75.35 E110.73887
G0 F2400 X48.15 Y74.85
G1 F1560 X54.85 Y68.15 E110.87687
G0 F2400 X54.36 Y68.15
G1 F1560 X48.15 Y74.36 E111.00468
G0 F2400 X48.15 Y73.86
G1 F1560 X53.86 Y68.15 E111.12231
G0 F2400 X53.37 Y68.15
G1 F1560 X48.15 Y73.37 E111.22975
G0 F2400 X48.15 Y72.87
G1 F1560 X52.87 Y68.15 E111.32701
G0 F2400 X52.38 Y68.15
G1 F1560 X48.15 Y72.38 E111.41407
G0 F2400 X48.15 Y71.88
G1 F1560 X51.88 Y68.15 E111.49096
G0 F2400 X51.39 Y68.15
G1 F1560 X48.15 Y71.39 E111.55765
G0 F2400 X48.15 Y70.89
G1 F1560 X50.89 Y68.15 E111.61417
G0 F2400 X50.40 Y68.15
G1 F1560 X48.15 Y70.40 E111.66050
G0 F2400 X48.15 Y69.90
G1 F1560 X49.90 Y68.15 E111.69665
G0 F2400 X49.41 Y68.15
G1 F1560 X48.15 Y69.41 E111.72261
G0 F2400 X48.15 Y68.91
G1 F1560 X48.91 Y68.15 E111.73838
G0 F2400 X48.42 Y68.15
G1 F1560 X48.15 Y68.42 E111.74397
;LAYER:2
M106 S168
G0 F2400 X48.02 Y68.03 Z0.40
;TYPE:WALL-INNER
G1 F1620 X71.97 Y68.03 E112.09248
G1 X71.97 Y91.97 E112.44098
G1 X48.02 Y91.97 E112.78948
G1 X48.02 Y68.03 E113.13799
G0 F2400 X47.67 Y67.67
;TYPE:WALL-OUTER
G1 F1620 X72.33 Y67.67 E113.49668
G1 X72.33 Y92.33 E113.85537
G1 X47.67 Y92.33 E114.21406
G1 X47.67 Y67.67 E114.57275
G0 F2400 X48.15 Y68.19
;TYPE:FILL
G1 F1620 X71.80 Y91.85 E115.05958
G0 F2400 X71.85 Y91.40
G1 F1620 X48.59 Y68.15 E115.53815
G0 F2400 X49.09 Y68.15
G1 F1620 X71.85 Y90.91 E116.00654
G0 F2400 X71.85 Y90.41
G1 F1620 X49.59 Y68.15 E116.46475
G0 F2400 X50.08 Y68.15
G1 F1620 X71.85 Y89.92 E116.91277
G0 F2400 X71.85 Y89.42
G1 F1620 X50.58 Y68.15 E117.35060
G0 F2400 X51.07 Y68.15
G1 F1620 X71.85 Y88.93 E117.77824
G0 F2400 X71.85 Y88.43
G1 F1620 X51.56 Y68.15 E118.19570
G0 F2400 X52.06 Y68.15
G1 F1620 X71.85 Y87.94 E118.60297
G0 F2400 X71.85 Y87.44
G1 F1620 X52.56 Y68.15 E119.00006
G0 F2400 X53.05 Y68.15
G1 F1620 X71.85 Y86.95 E119.38696
G0 F2400 X71.85 Y86.45
G1 F1620 X53.55 Y68.15 E119.76367
G0 F2400 X54.04 Y68.15
G1 F1620 X71.85 Y85.96 E120.13020
G0 F2400 X71.85 Y85.46
G1 F1620 X54.53 Y68.15 E120.48654
G0 F2400 X55.03 Y68.15
G1 F1620 X71.85 Y84.97 E120.83269
G0 F2400 X71.85 Y84.47
G1 F1620 X55.52 Y68.15 E121.16866
G0 F2400 X56.02 Y68.15
G1 F1620 X71.85 Y83.98 E121.49444
G0 F2400 X71.85 Y83.48
G1 F1620 X56.52 Y68.15 E121.81003
G0 F2400 X57.01 Y68.15
G1 F1620 X71.85 Y82.99 E122.11544
G0 F2400 X71.85 Y82.49
G1 F1620 X57.51 Y68.15 E122.41066
G0 F2400 X58.00 Y68.15
G1 F1620 X71.85 Y82.00 E122.69570
G0 F2400 X71.85 Y81.50
G1 F1620 X58.49 Y68.15 E122.97055
G0 F2400 X58.99 Y68.15
G1 F1620 X71.85 Y81.01 E123.23521
G0 F2400 X71.85 Y80.51
G1 F1620 X59.48 Y68.15 E123.48969
G0 F2400 X59.98 Y68.15
G1 F1620 X71.85 Y80.02 E123.73399
G0 F2400 X71.85 Y79.52
